static/icons/easy_setup.svg

<svg width="120" height="80" viewBox="0 0 120 80" fill="none" xmlns="http://www.w3.org/2000/svg">
<path d="M96.5388 56.8569V66.0261C96.5388 67.7078 95.2213 69.1092 93.5939 69.1092H25.7842C24.1567 69.1092 22.8005 67.7478 22.8005 66.0261V56.8569H96.5388Z" fill="#C1C1C1"/>
<path d="M93.5552 69.6698H25.7842C23.8467 69.6698 22.2581 68.0281 22.2581 66.0261V56.8569C22.2581 56.5366 22.4905 56.2964 22.8005 56.2964H96.5388C96.8488 56.2964 97.0813 56.5366 97.0813 56.8569V66.0261C97.0813 68.0281 95.4926 69.6698 93.5552 69.6698ZM23.343 57.4175V66.0261C23.343 67.4275 24.428 68.5486 25.7842 68.5486H93.5552C94.9114 68.5486 95.9963 67.4275 95.9963 66.0261V57.4175H23.343Z" fill="#323C6B"/>
<path d="M96.5388 13.1732V56.8568H22.8005V13.1732C22.8005 11.4915 24.1567 10.0901 25.7842 10.0901H93.5552C95.1826 10.1301 96.5388 11.4915 96.5388 13.1732Z" fill="#EBECE9"/>
<path d="M96.5388 57.4174H22.8005C22.4905 57.4174 22.2581 57.1772 22.2581 56.8568V13.1732C22.2581 11.1712 23.8467 9.52952 25.7842 9.56956H93.5552C95.4926 9.56956 97.0425 11.2112 97.0425 13.1732V56.8568C97.0813 57.1772 96.81 57.4174 96.5388 57.4174ZM23.343 56.2963H95.9963V13.1732C95.9963 11.7718 94.9114 10.6907 93.5552 10.6506H25.7842C24.428 10.6506 23.343 11.7718 23.343 13.1732V56.2963Z" fill="#323C6B"/>
<path d="M96.5388 56.8569V66.0261C96.5388 67.7078 95.2213 69.1092 93.5939 69.1092H92.9352V56.8569H96.5388Z" fill="#A4A4A4"/>
<path d="M96.5388 13.1732V56.8568H92.9352V17.6176C92.9352 15.9359 91.6177 14.5746 89.9903 14.5746H22.8005V13.2132C22.8005 11.5315 24.1567 10.1301 25.7842 10.1301H93.5552C95.1826 10.1301 96.5388 11.4915 96.5388 13.1732Z" fill="#C1C1C1"/>
<path d="M71.6623 79.4395L68.9886 69.1492H50.3506L47.677 79.4395H71.6623Z" fill="#C1C1C1"/>
<path d="M71.6623 80H47.677C47.367 80 47.1345 79.7598 47.1345 79.4395C47.1345 79.3994 47.1345 79.3594 47.1345 79.2793L49.8082 68.989C49.8857 68.7488 50.0794 68.5886 50.3506 68.5886H68.9886C69.2211 68.5886 69.4536 68.7488 69.5311 68.989L72.2048 79.2793C72.2822 79.5596 72.1273 79.8799 71.8173 79.96C71.7398 79.96 71.701 80 71.6623 80ZM48.3745 78.8789H70.9261L68.5624 69.7097H50.7769L48.3745 78.8789Z" fill="#244583"/>
<path d="M75.4984 80H43.8409C43.531 80 43.2985 79.7598 43.2985 79.4395C43.2985 79.1191 43.531 78.8789 43.8409 78.8789H75.4597C75.7696 78.8789 76.0021 79.1191 76.0021 79.4395C76.0409 79.7197 75.7696 80 75.4984 80Z" fill="#244583"/>
<path d="M93.5552 69.6698H25.7842C23.8467 69.6698 22.2581 68.0281 22.2581 66.0261V56.8569C22.2581 56.5366 22.4905 56.2964 22.8005 56.2964H96.5388C96.8488 56.2964 97.0813 56.5366 97.0813 56.8569V66.0261C97.0813 68.0281 95.4926 69.6698 93.5552 69.6698ZM23.343 57.4175V66.0261C23.343 67.4275 24.428 68.5486 25.7842 68.5486H93.5552C94.9114 68.5486 95.9963 67.4275 95.9963 66.0261V57.4175H23.343Z" fill="#244583"/>
<path d="M96.5388 57.4174H22.8005C22.4905 57.4174 22.2581 57.1772 22.2581 56.8568V13.1732C22.2581 11.1712 23.8467 9.52952 25.7842 9.56956H93.5552C95.4926 9.56956 97.0425 11.2112 97.0425 13.1732V56.8568C97.0813 57.1772 96.81 57.4174 96.5388 57.4174ZM23.343 56.2963H95.9963V13.1732C95.9963 11.7718 94.9114 10.6907 93.5552 10.6506H25.7842C24.428 10.6506 23.343 11.7718 23.343 13.1732V56.2963Z" fill="#244583"/>
<path d="M59.6502 65.1051C60.7844 65.1051 61.7039 64.155 61.7039 62.983C61.7039 61.8109 60.7844 60.8608 59.6502 60.8608C58.516 60.8608 57.5966 61.8109 57.5966 62.983C57.5966 64.155 58.516 65.1051 59.6502 65.1051Z" fill="#EEEFEE"/>
<path d="M59.6503 65.6657C58.2167 65.6657 57.0542 64.4645 57.0542 62.983C57.0542 61.5015 58.2167 60.3003 59.6503 60.3003C61.084 60.3003 62.2465 61.5015 62.2465 62.983C62.2465 64.4645 61.084 65.6657 59.6503 65.6657ZM59.6503 61.4214C58.7979 61.4214 58.1392 62.1421 58.1392 62.983C58.1392 63.8639 58.8366 64.5445 59.6503 64.5445C60.5028 64.5445 61.1615 63.8238 61.1615 62.983C61.2003 62.1421 60.5028 61.4214 59.6503 61.4214Z" fill="#244583"/>
<path d="M45.5847 66.8267H43.1435C42.756 66.8267 42.446 66.5064 42.446 66.106C42.446 65.7056 42.756 65.3853 43.1435 65.3853H45.5847C45.9721 65.3853 46.2821 65.7056 46.2821 66.106C46.3209 66.5064 45.9721 66.8267 45.5847 66.8267Z" fill="white"/>
<path d="M40.0436 66.8267H29.9303C29.5428 66.8267 29.2328 66.5064 29.2328 66.106C29.2328 65.7056 29.5428 65.3853 29.9303 65.3853H40.0436C40.4311 65.3853 40.7411 65.7056 40.7411 66.106C40.7411 66.5064 40.4311 66.8267 40.0436 66.8267Z" fill="white"/>
<path d="M73.7935 40.08L76.5834 47.3273L69.9962 51.4915L64.9976 45.6056C61.859 46.5265 58.5266 46.6066 55.3492 45.8458L50.6607 52.012L43.8797 48.2082L46.3209 40.8008C43.9572 38.4384 42.2135 35.5155 41.2836 32.2722L33.7664 31.1511L33.5726 23.1832L40.9736 21.6616C41.7873 18.3784 43.376 15.3753 45.5846 12.9329V12.8929L42.8335 5.60558L49.4207 1.44142L54.4193 7.36734C57.5579 6.44642 60.8903 6.3263 64.0676 7.1271L68.7562 0.960938L75.5372 4.76474L73.096 12.1721C75.4597 14.5345 77.1646 17.4574 78.1333 20.6606L85.6505 21.8218L85.8443 29.7898L78.4433 31.3113C77.5908 34.5946 76.0022 37.5976 73.7935 40.08Z" fill="#24C4A1"/>
<path d="M71.5461 40.7207L74.3359 47.9679L67.7487 52.1321L62.7502 46.2462C59.6115 47.1671 56.2792 47.2472 53.1018 46.4864L48.4133 52.6526L41.6323 48.8088L44.0734 41.4014C41.7098 39.039 40.0048 36.1161 39.0361 32.8728L31.5189 31.7517L31.3252 23.7837L38.7261 22.2622C39.5399 18.9789 41.1285 15.9759 43.3372 13.5335V13.4935L40.5473 6.24621L47.1346 2.08204L52.1331 8.00797C55.2717 7.08705 58.6041 6.96693 61.7815 7.76773L66.47 1.6416L73.251 5.44541L70.8486 12.8128C73.2122 15.1751 74.9172 18.0981 75.8859 21.3013L83.4031 22.4624L83.5968 30.4304L76.1959 31.9519C75.3434 35.1952 73.7547 38.2382 71.5461 40.7207Z" fill="#9FEFDE"/>
<path d="M50.8544 52.5726L43.221 48.2883L45.7009 40.7608C43.4922 38.4785 41.8648 35.6757 40.8961 32.6326L33.2626 31.4715L33.0302 22.5025L40.5861 20.9409C41.3998 17.8178 42.9498 14.9349 45.0034 12.5325L42.1748 5.16516L49.6145 0.48048L54.6905 6.48649C57.7129 5.64565 60.8515 5.56557 63.9127 6.24625L68.6787 0L76.3122 4.28428L73.8323 11.8118C76.0409 14.0941 77.6683 16.8969 78.6371 19.9399L86.2705 21.1011L86.503 30.0701L78.947 31.6316C78.1333 34.7147 76.5834 37.6376 74.5297 40L77.3584 47.3674L69.9574 52.052L64.8814 46.046C61.859 46.8869 58.7204 46.967 55.6592 46.2863L50.8544 52.5726ZM44.6547 47.7277L50.5444 51.051L55.1943 45.005L55.543 45.0851C58.6041 45.8458 61.859 45.7257 64.8814 44.8448L65.2301 44.7247L70.1512 50.5305L75.8859 46.8869L73.1348 39.7197L73.406 39.4394C75.5372 37.037 77.0871 34.1141 77.8621 30.991L77.9008 30.8709L78.0171 30.6306L78.2883 30.5506L85.2243 29.1491L85.0693 22.1822L77.6683 21.0611L77.5521 20.7007C76.6221 17.5776 74.956 14.7347 72.6698 12.4525L72.3986 12.1722L74.801 4.88488L68.9112 1.56156L64.3001 7.60761L63.9514 7.52753C60.8903 6.76677 57.6354 6.88689 54.613 7.76777L54.2643 7.88789L49.382 2.04204L43.6472 5.68569L46.3596 12.7327L46.1271 13.1331C43.9572 15.4955 42.4073 18.4184 41.6323 21.5816V21.6617L41.4773 21.982L41.2061 22.0621L34.2701 23.4635L34.4251 30.4304L41.826 31.5515L41.9423 31.9119C42.8335 35.035 44.5384 37.8779 46.8246 40.1602L47.0571 40.4404L44.6547 47.7277Z" fill="#244583"/>
<path d="M59.689 35.9959C64.7823 35.9959 68.9112 31.7294 68.9112 26.4664C68.9112 21.2034 64.7823 16.9369 59.689 16.9369C54.5958 16.9369 50.4669 21.2034 50.4669 26.4664C50.4669 31.7294 54.5958 35.9959 59.689 35.9959Z" fill="#EBECE9"/>
<path d="M59.689 36.5966C58.1004 36.5966 56.5117 36.1962 55.0392 35.3554C50.3119 32.6727 48.5295 26.5465 51.1256 21.6216C53.7218 16.7367 59.6503 14.8949 64.4163 17.5776C66.7025 18.8589 68.3687 21.021 69.1437 23.5836C69.8799 26.1862 69.6086 28.9089 68.3687 31.2713C66.5088 34.6747 63.1376 36.5966 59.689 36.5966ZM59.689 17.5375C56.6279 17.5375 53.6443 19.2192 52.0943 22.1822C49.8082 26.5065 51.3581 31.9119 55.543 34.2743C57.5579 35.3954 59.8828 35.6757 62.1302 34.995C64.3388 34.3143 66.16 32.7928 67.2837 30.7107C68.4074 28.6286 68.6399 26.2262 67.9812 23.9039C67.3225 21.6216 65.85 19.7397 63.8351 18.5786C62.5177 17.8979 61.084 17.5375 59.689 17.5375Z" fill="#244583"/>
<path d="M53.2955 42.3624C53.2568 42.3624 53.1793 42.3624 53.1405 42.3224C52.5593 42.0421 51.9781 41.7218 51.3968 41.4015C51.2031 41.2814 51.1644 41.0011 51.2806 40.8009C51.3968 40.6007 51.6293 40.5606 51.8231 40.6407C52.3656 40.961 52.908 41.2814 53.4893 41.5216C53.683 41.6017 53.7992 41.882 53.683 42.0822C53.6055 42.2423 53.4505 42.3624 53.2955 42.3624Z" fill="white"/>
<path d="M50.2344 40.4804C50.1569 40.4804 50.0407 40.4404 50.0019 40.4003C47.7933 38.6786 46.0883 36.3563 45.0421 33.7136C44.9646 33.5134 45.0421 33.2332 45.2746 33.1531C45.4684 33.073 45.7396 33.1531 45.8171 33.3933C46.7858 35.9158 48.4132 38.078 50.5056 39.7196C50.6994 39.8798 50.7381 40.12 50.5831 40.3202C50.5056 40.4404 50.3507 40.4804 50.2344 40.4804Z" fill="white"/>
</svg>

<svg xmlns="http://www.w3.org/2000/svg" xmlns:xlink="http://www.w3.org/1999/xlink" width="120" height="80" fill="none" xmlns:v="https://vecta.io/nano"><path d="M96.539 56.857v9.169c0 1.682-1.317 3.083-2.945 3.083h-67.81c-1.627 0-2.984-1.361-2.984-3.083v-9.169h73.738z" fill="#c1c1c1"/><use xlink:href="#B" fill="#323c6b"/><path d="M96.539 13.173v43.684H22.801V13.173c0-1.682 1.356-3.083 2.984-3.083h67.771a3.09 3.09 0 0 1 2.984 3.083z" fill="#ebece9"/><use xlink:href="#C" fill="#323c6b"/><path d="M96.539 56.857v9.169c0 1.682-1.317 3.083-2.945 3.083h-.659V56.857h3.604z" fill="#a4a4a4"/><path d="M96.539 13.173v43.684h-3.604V17.618c0-1.682-1.317-3.043-2.945-3.043H22.8v-1.361c0-1.682 1.356-3.083 2.984-3.083h67.771c1.627 0 2.984 1.361 2.984 3.043zM71.662 79.44l-2.674-10.29H50.351l-2.674 10.29h23.985z" fill="#c1c1c1"/><g fill="#244583"><path d="M71.662 80H47.677c-.31 0-.542-.24-.542-.561v-.16l2.674-10.29c.078-.24.271-.4.542-.4h18.638c.233 0 .465.16.542.4l2.674 10.29a.55.55 0 0 1-.388.681c-.078 0-.116.04-.155.04zm-23.288-1.121h22.552l-2.364-9.169H50.777l-2.402 9.169z"/><path d="M75.498 80H43.841c-.31 0-.542-.24-.542-.561s.233-.561.542-.561H75.46c.31 0 .542.24.542.561.039.28-.233.561-.504.561z"/><use xlink:href="#B"/><use xlink:href="#C"/></g><path d="M59.65 65.105c1.134 0 2.054-.95 2.054-2.122s-.919-2.122-2.054-2.122-2.054.95-2.054 2.122.919 2.122 2.054 2.122z" fill="#eeefee"/><path d="M59.65 65.666c-1.434 0-2.596-1.201-2.596-2.683S58.217 60.3 59.65 60.3s2.596 1.201 2.596 2.683-1.162 2.683-2.596 2.683zm0-4.244c-.852 0-1.511.721-1.511 1.562 0 .881.697 1.562 1.511 1.562.852 0 1.511-.721 1.511-1.562.039-.841-.659-1.562-1.511-1.562z" fill="#244583"/><path d="M45.585 66.827h-2.441c-.388 0-.698-.32-.698-.721s.31-.721.698-.721h2.441c.387 0 .697.32.697.721.039.4-.31.721-.697.721zm-5.541 0H29.93c-.387 0-.697-.32-.697-.721s.31-.721.697-.721h10.113c.388 0 .698.32.698.721s-.31.721-.698.721z" fill="#fff"/><path d="M73.794 40.08l2.79 7.247-6.587 4.164-4.999-5.886c-3.139.921-6.471 1.001-9.648.24l-4.689 6.166-6.781-3.804 2.441-7.407c-2.364-2.362-4.107-5.285-5.037-8.529l-7.517-1.121-.194-7.968 7.401-1.522c.814-3.283 2.402-6.286 4.611-8.729v-.04l-2.751-7.287 6.587-4.164 4.999 5.926c3.139-.921 6.471-1.041 9.648-.24L68.756.961l6.781 3.804-2.441 7.407c2.364 2.362 4.069 5.285 5.037 8.488l7.517 1.161.194 7.968-7.401 1.521c-.852 3.283-2.441 6.286-4.65 8.769z" fill="#24c4a1"/><path d="M71.546 40.721l2.79 7.247-6.587 4.164-4.998-5.886c-3.139.921-6.471 1.001-9.648.24l-4.688 6.166-6.781-3.844 2.441-7.407c-2.364-2.362-4.069-5.285-5.037-8.529l-7.517-1.121-.194-7.968 7.401-1.521c.814-3.283 2.402-6.286 4.611-8.729v-.04l-2.79-7.247 6.587-4.164 4.999 5.926c3.139-.921 6.471-1.041 9.648-.24l4.688-6.126 6.781 3.804-2.402 7.367c2.364 2.362 4.069 5.285 5.037 8.489l7.517 1.161.194 7.968-7.401 1.521c-.852 3.243-2.441 6.286-4.65 8.769z" fill="#9fefde"/><path d="M50.854 52.573l-7.633-4.284 2.48-7.527c-2.209-2.282-3.836-5.085-4.805-8.128l-7.633-1.161-.232-8.969 7.556-1.562c.814-3.123 2.364-6.006 4.417-8.408l-2.829-7.367L49.615.48l5.076 6.006c3.022-.841 6.161-.921 9.222-.24L68.679 0l7.633 4.284-2.48 7.528c2.209 2.282 3.836 5.085 4.805 8.128l7.633 1.161.233 8.969-7.556 1.561c-.814 3.083-2.364 6.006-4.417 8.368l2.829 7.367-7.401 4.685-5.076-6.006c-3.022.841-6.161.921-9.222.24l-4.805 6.286zm-6.2-4.845l5.89 3.323 4.65-6.046.349.08c3.061.761 6.316.641 9.338-.24l.349-.12 4.921 5.806 5.735-3.644-2.751-7.167.271-.28a20.09 20.09 0 0 0 4.456-8.448l.039-.12.116-.24.271-.08 6.936-1.401-.155-6.967-7.401-1.121-.116-.36c-.93-3.123-2.596-5.966-4.882-8.248l-.271-.28 2.402-7.287-5.89-3.323L64.3 7.608l-.349-.08c-3.061-.761-6.316-.641-9.338.24l-.349.12-4.882-5.846-5.735 3.644 2.712 7.047-.233.4c-2.17 2.362-3.72 5.285-4.495 8.449v.08l-.155.32-.271.08-6.936 1.401.155 6.967 7.401 1.121.116.36c.891 3.123 2.596 5.966 4.882 8.248l.233.28-2.402 7.287z" fill="#244583"/><path d="M59.689 35.996c5.093 0 9.222-4.267 9.222-9.529s-4.129-9.529-9.222-9.529-9.222 4.266-9.222 9.529 4.129 9.529 9.222 9.529z" fill="#ebece9"/><path d="M59.689 36.597a9.32 9.32 0 0 1-4.65-1.241c-4.727-2.683-6.51-8.809-3.914-13.734 2.596-4.885 8.525-6.727 13.291-4.044 2.286 1.281 3.952 3.443 4.727 6.006.736 2.603.465 5.325-.775 7.688-1.86 3.403-5.231 5.325-8.68 5.325zm0-19.059c-3.061 0-6.045 1.682-7.595 4.645-2.286 4.324-.736 9.73 3.449 12.092 2.015 1.121 4.34 1.401 6.587.721 2.209-.681 4.03-2.202 5.153-4.284s1.356-4.485.698-6.807c-.659-2.282-2.131-4.164-4.146-5.325-1.317-.681-2.751-1.041-4.146-1.041z" fill="#244583"/><path d="M53.296 42.362c-.039 0-.116 0-.155-.04l-1.744-.921c-.194-.12-.232-.4-.116-.601s.349-.24.542-.16l1.666.881c.194.08.31.36.194.561-.078.16-.233.28-.388.28zm-3.062-1.882c-.078 0-.194-.04-.233-.08-2.209-1.722-3.914-4.044-4.96-6.687-.078-.2 0-.48.233-.56.194-.08.465 0 .543.24a14.75 14.75 0 0 0 4.688 6.326c.194.16.233.4.078.601-.078.12-.232.16-.349.16z" fill="#fff"/><defs ><path id="B" d="M93.555 69.67H25.784c-1.937 0-3.526-1.642-3.526-3.644v-9.169c0-.32.232-.561.542-.561h73.738c.31 0 .543.24.543.561v9.169c0 2.002-1.589 3.644-3.526 3.644zM23.343 57.418v8.609c0 1.401 1.085 2.522 2.441 2.522h67.771c1.356 0 2.441-1.121 2.441-2.522v-8.609H23.343z"/><path id="C" d="M96.539 57.417H22.801c-.31 0-.542-.24-.542-.561V13.173c0-2.002 1.589-3.644 3.526-3.604h67.771c1.937 0 3.487 1.642 3.487 3.604v43.684a.51.51 0 0 1-.504.561zm-73.196-1.121h72.653V13.173c0-1.401-1.085-2.482-2.441-2.523H25.784c-1.356 0-2.441 1.121-2.441 2.523v43.123z"/></defs></svg>
